Papirus/24x24/apps/qbittorrent.svg

<svg xmlns="http://www.w3.org/2000/svg" width="24" height="24" version="1">
 <circle fill="#2f67ba" cx="12" cy="12" r="10"/>
 <path fill="#fff" d="m12 2c-5.5395 0-9.999 4.46-9.999 10 0 0.08386-0.002 0.16664 0 0.25 0.1321-5.423 4.5435-9.75 9.999-9.75s9.867 4.3268 9.999 9.75c0.002-0.08335 0-0.16614 0-0.25 0-5.54-4.459-10-9.999-10z" style="opacity:0.1"/>
 <path opacity=".2" d="m21.99 12.209a10 10 0 0 1 -9.99 9.791 10 10 0 0 1 -9.989 -9.709 10 10 0 0 0 -0.011 0.209 10 10 0 0 0 10 10 10 10 0 0 0 10 -10 10 10 0 0 0 -0.0105 -0.291z"/>
 <path d="m 7,8.5 c -2.209139,0 -4,1.790861 -4,4 0,2.209139 1.790861,4 4,4 0.7025232,-0.0013 1.3923246,-0.188495 2,-0.541016 L 9,19.5 a 1,1 0 0 0 1,1 1,1 0 0 0 1,-1 l 0,-11 -2,0 0,0.5410156 C 8.3925148,8.6878093 7.7027016,8.5018543 7,8.5 Z m 0,2 c 1.1045695,0 2,0.895431 2,2 0,1.104569 -0.8954305,2 -2,2 -1.1045695,0 -2,-0.895431 -2,-2 0,-1.104569 0.8954305,-2 2,-2 z" style="opacity:0.2"/>
 <path style="fill:#64d4f9" d="M 7 8 C 4.790861 8 3 9.790861 3 12 C 3 14.209139 4.790861 16 7 16 C 7.7025232 15.9987 8.3923246 15.811505 9 15.458984 L 9 19 A 1 1 0 0 0 10 20 A 1 1 0 0 0 11 19 L 11 8 L 9 8 L 9 8.5410156 C 8.3925148 8.1878093 7.7027016 8.0018543 7 8 z M 7 10 C 8.1045695 10 9 10.895431 9 12 C 9 13.104569 8.1045695 14 7 14 C 5.8954305 14 5 13.104569 5 12 C 5 10.895431 5.8954305 10 7 10 z"/>
 <path d="m 14,4.5 a 1,1 0 0 0 -1,1 l 0,11 2,0 0,-0.541016 c 0.607485,0.353206 1.297298,0.539172 2,0.541016 2.209139,0 4,-1.790861 4,-4 0,-2.209139 -1.790861,-4 -4,-4 -0.70252,0.00125 -1.392321,0.1865555 -2,0.5390625 L 15,5.5 a 1,1 0 0 0 -1,-1 z m 3,6 c 1.104569,0 2,0.895431 2,2 0,1.104569 -0.895431,2 -2,2 -1.104569,0 -2,-0.895431 -2,-2 0,-1.104569 0.895431,-2 2,-2 z" style="opacity:0.2"/>
 <path style="fill:#ffffff" d="M 14 4 A 1 1 0 0 0 13 5 L 13 16 L 15 16 L 15 15.458984 C 15.607485 15.81219 16.297298 15.998156 17 16 C 19.209139 16 21 14.209139 21 12 C 21 9.790861 19.209139 8 17 8 C 16.29748 8.00125 15.607679 8.1865555 15 8.5390625 L 15 5 A 1 1 0 0 0 14 4 z M 17 10 C 18.104569 10 19 10.895431 19 12 C 19 13.104569 18.104569 14 17 14 C 15.895431 14 15 13.104569 15 12 C 15 10.895431 15.895431 10 17 10 z"/>
</svg>

<svg xmlns="http://www.w3.org/2000/svg" width="24" height="24" version="1">
 <circle fill="#2f67ba" cx="12" cy="12" r="10"/>
 <path fill="#fff" opacity=".2" d="m12 2c-5.5395 0-9.999 4.46-9.999 10 0 0.08386-0.002 0.16664 0 0.25 0.1321-5.423 4.5435-9.75 9.999-9.75s9.867 4.3268 9.999 9.75c0.002-0.08335 0-0.16614 0-0.25 0-5.54-4.459-10-9.999-10z"/>
 <path opacity=".2" d="m21.99 12.209a10 10 0 0 1 -9.99 9.791 10 10 0 0 1 -9.989 -9.709 10 10 0 0 0 -0.011 0.209 10 10 0 0 0 10 10 10 10 0 0 0 10 -10 10 10 0 0 0 -0.0105 -0.291z"/>
 <path opacity=".2" d="m7 8.5a4 4 0 0 0 -4 4 4 4 0 0 0 4 4 4 4 0 0 0 2 -0.54004v4.54h2v-12h-2v0.54199a4 4 0 0 0 -2 -0.542zm0 2a2 2 0 0 1 2 2 2 2 0 0 1 -2 2 2 2 0 0 1 -2 -2 2 2 0 0 1 2 -2z"/>
 <path fill="#7fc1de" d="m7 8a4 4 0 0 0 -4 4 4 4 0 0 0 4 4 4 4 0 0 0 2 -0.54004v4.54h2v-12h-2v0.542a4 4 0 0 0 -2 -0.542zm0 2a2 2 0 0 1 2 2 2 2 0 0 1 -2 2 2 2 0 0 1 -2 -2 2 2 0 0 1 2 -2z"/>
 <path opacity=".2" d="m17 16.5a4 4 0 0 0 4 -4 4 4 0 0 0 -4 -4 4 4 0 0 0 -2 0.54004v-4.54h-2v12h2v-0.54199a4 4 0 0 0 2 0.542zm0-2a2 2 0 0 1 -2 -2 2 2 0 0 1 2 -2 2 2 0 0 1 2 2 2 2 0 0 1 -2 2z"/>
 <path fill="#fff" d="m17 16a4 4 0 0 0 4 -4 4 4 0 0 0 -4 -4 4 4 0 0 0 -2 0.54v-4.54h-2v12h2v-0.54199a4 4 0 0 0 2 0.542zm0-2a2 2 0 0 1 -2 -2 2 2 0 0 1 2 -2 2 2 0 0 1 2 2 2 2 0 0 1 -2 2z"/>
</svg>
